packages/foundations/assets/icons/functional/images/notification/bell_16_filled.svg

<svg width="16" height="16" viewBox="0 0 16 16" fill="none" xmlns="http://www.w3.org/2000/svg">
<g clip-path="url(#clip0_2214_8038)">
<path fill-rule="evenodd" clip-rule="evenodd" d="M7.99218 1.60001C10.7102 1.60001 12.5222 3.59805 12.5222 6.57956V9.70146C12.5222 10.7005 12.6471 10.8878 13.2251 11.3093C13.4751 11.481 13.6 11.7308 13.6 11.9805C13.6 12.3551 13.3199 12.7766 12.8815 12.7766H9.60114V12.7922C9.60114 13.6819 8.88258 14.4 7.99218 14.4C7.16434 14.4 6.3833 13.6819 6.3833 12.7766H3.19666C2.69682 12.7766 2.40002 12.3707 2.40002 11.9649C2.40002 11.7463 2.4781 11.5278 2.68122 11.3717C3.33722 10.9503 3.46226 10.7161 3.46226 9.65461V6.79805C3.46226 3.69174 5.22738 1.60001 7.99218 1.60001Z" fill="#1A1C1F"/>
</g>
<defs>
<clipPath id="clip0_2214_8038">
<rect width="16" height="16" fill="white"/>
</clipPath>
</defs>
</svg>

<svg xmlns="http://www.w3.org/2000/svg" width="16" height="16" fill="none"><g clip-path="url(#a)"><path fill="#1A1C1F" fill-rule="evenodd" d="M7.992 1.6c2.718 0 4.53 1.998 4.53 4.98V9.7c0 1 .125 1.187.703 1.608.25.172.375.422.375.672 0 .374-.28.796-.718.796h-3.28v.015c0 .89-.72 1.608-1.61 1.608-.828 0-1.609-.718-1.609-1.623H3.197c-.5 0-.797-.406-.797-.812 0-.219.078-.437.281-.593.656-.422.781-.656.781-1.717V6.798c0-3.106 1.765-5.198 4.53-5.198" clip-rule="evenodd"/></g><defs><clipPath id="a"><path fill="#fff" d="M0 0h16v16H0z"/></clipPath></defs></svg>
